src/assets/svg/icons/fa/nuevos/classic/thin/shop classic thin.svg

<svg xmlns="http://www.w3.org/2000/svg" viewBox="0 0 640 512"><!--! Font Awesome Pro 6.4.0 by @fontawesome - https://fontawesome.com License - https://fontawesome.com/license (Commercial License) Copyright 2023 Fonticons, Inc. --><path d="M0 185.8c0-6.4 1.6-12.7 4.7-18.3L82.4 25C90.8 9.6 106.9 0 124.5 0h391c17.6 0 33.7 9.6 42.1 25l77.7 142.4c3.1 5.6 4.7 11.9 4.7 18.3c0 21.1-17.1 38.2-38.2 38.2H576V488c0 13.3-10.7 24-24 24H520c-13.3 0-24-10.7-24-24V256c0-4.4 3.6-8 8-8s8 3.6 8 8V488c0 4.4 3.6 8 8 8h32c4.4 0 8-3.6 8-8V224H80V464c0 17.7 14.3 32 32 32H336c17.7 0 32-14.3 32-32V256c0-4.4 3.6-8 8-8s8 3.6 8 8V464c0 26.5-21.5 48-48 48H112c-26.5 0-48-21.5-48-48V224H38.2C17.1 224 0 206.9 0 185.8zM72 208H568h33.8c12.3 0 22.2-10 22.2-22.2c0-3.7-.9-7.4-2.7-10.7L543.6 32.7C538 22.4 527.2 16 515.5 16h-391c-11.7 0-22.5 6.4-28.1 16.7L18.7 175.1c-1.8 3.3-2.7 6.9-2.7 10.7C16 198 26 208 38.2 208H72zm64 40c4.4 0 8 3.6 8 8V360c0 4.4 3.6 8 8 8H296c4.4 0 8-3.6 8-8V256c0-4.4 3.6-8 8-8s8 3.6 8 8V360c0 13.3-10.7 24-24 24H152c-13.3 0-24-10.7-24-24V256c0-4.4 3.6-8 8-8z"/></svg>

<svg xmlns="http://www.w3.org/2000/svg" viewBox="0 0 640 512"><path d="M.0003 185.8C.0003 179.4 1.606 173.1 4.67 167.4L82.36 25.02C90.77 9.595 106.9 0 124.5 0H515.5C533.1 0 549.2 9.595 557.6 25.02L635.3 167.4C638.4 173.1 640 179.4 640 185.8C640 206.9 622.9 224 601.8 224H576V488C576 501.3 565.3 512 552 512H520C506.7 512 496 501.3 496 488V256C496 251.6 499.6 248 504 248C508.4 248 512 251.6 512 256V488C512 492.4 515.6 496 520 496H552C556.4 496 560 492.4 560 488V224H79.1V464C79.1 481.7 94.33 496 111.1 496H336C353.7 496 368 481.7 368 464V256C368 251.6 371.6 248 376 248C380.4 248 384 251.6 384 256V464C384 490.5 362.5 512 336 512H111.1C85.49 512 63.1 490.5 63.1 464V224H38.25C17.12 224 0 206.9 0 185.8H.0003zM601.8 208C614 208 624 198 624 185.8C624 182 623.1 178.4 621.3 175.1L543.6 32.68C537.1 22.4 527.2 16 515.5 16H124.5C112.8 16 102 22.4 96.4 32.68L18.72 175.1C16.93 178.4 16 182 16 185.8C16 198 25.96 208 38.25 208H601.8zM135.1 248C140.4 248 143.1 251.6 143.1 256V360C143.1 364.4 147.6 368 151.1 368H295.1C300.4 368 303.1 364.4 303.1 360V256C303.1 251.6 307.6 248 311.1 248C316.4 248 319.1 251.6 319.1 256V360C319.1 373.3 309.3 384 295.1 384H151.1C138.7 384 127.1 373.3 127.1 360V256C127.1 251.6 131.6 248 135.1 248V248z"/></svg>
